public/waste/img/plastic.svg

<svg id="Layer_1" data-name="Layer 1" xmlns="http://www.w3.org/2000/svg" viewBox="0 0 124.63014 124.63014"><defs><style>.cls-1{fill:#05baee;fill-rule:evenodd;}</style></defs><path class="cls-1" d="M49.27654,0H75.3536V11.17594H49.27654V0ZM81.93206,71.06689,66.95652,75.05833,64.11915,64.27667l15.01217-4.00182-.04275-13.70524A16.78678,16.78678,0,0,0,45.515,46.566l.01022,28.49311,20.224,34.98478c2.66651,4.97042,8.9764,3.3981,10.65537-1.5,5.56753,3.47472,11.80748.16936,11.45336-6.61222,5.0806.995,9.87215-3.84181,6.90118-8.63635L81.93206,71.06689Zm8.296-7.98446,14.34857,24.91042c5.81132,10.08906,2.16386,18.35163-7.46608,21.7146A15.22135,15.22135,0,0,1,78.513,120.44463c-7.72762,6.6589-16.44138,5.53689-22.26449-4.55L34.37632,78.01334l.01163-31.44451A27.91392,27.91392,0,0,1,90.21578,46.566L90.228,63.08243Z"/></svg>

<svg data-name="Layer 1" xmlns="http://www.w3.org/2000/svg" viewBox="0 0 124.63 124.63"><path d="M49.277 0h26.077v11.176H49.277V0zm32.655 71.067l-14.975 3.991-2.838-10.781 15.012-4.002-.042-13.705a16.787 16.787 0 00-33.574-.004l.01 28.493 20.224 34.985c2.667 4.97 8.977 3.398 10.656-1.5 5.567 3.475 11.807.17 11.453-6.612 5.08.995 9.872-3.842 6.901-8.637L81.932 71.067zm8.296-7.985l14.349 24.91c5.81 10.09 2.163 18.352-7.466 21.715a15.221 15.221 0 01-18.598 10.738c-7.728 6.659-16.441 5.537-22.264-4.55L34.376 78.013l.012-31.444a27.914 27.914 0 0155.828-.003l.012 16.516z" fill="#05baee" fill-rule="evenodd"/></svg>
